src/lib/packages/icons/src/assets/line/angles-down.svg

<svg width="24" height="24" viewBox="0 0 24 24" fill="none" xmlns="http://www.w3.org/2000/svg">
<path d="M19.5301 11.47C19.8231 11.763 19.8231 12.238 19.5301 12.531L12.5301 19.531C12.3841 19.677 12.192 19.751 12 19.751C11.808 19.751 11.616 19.678 11.47 19.531L4.46999 12.531C4.17699 12.238 4.17699 11.763 4.46999 11.47C4.76299 11.177 5.23803 11.177 5.53103 11.47L12.001 17.94L18.471 11.47C18.763 11.177 19.2371 11.177 19.5301 11.47ZM11.47 12.5301C11.616 12.6761 11.808 12.75 12 12.75C12.192 12.75 12.3841 12.6771 12.5301 12.5301L19.5301 5.53005C19.8231 5.23705 19.8231 4.76202 19.5301 4.46902C19.2371 4.17602 18.762 4.17602 18.469 4.46902L11.999 10.939L5.52908 4.46902C5.23608 4.17602 4.76104 4.17602 4.46804 4.46902C4.17504 4.76202 4.17504 5.23705 4.46804 5.53005L11.47 12.5301Z" fill="currentColor"/>
</svg>

<svg xmlns="http://www.w3.org/2000/svg" width="24" height="24" fill="none"><path fill="currentColor" d="M19.53 11.47a.75.75 0 0 1 0 1.061l-7 7a.748.748 0 0 1-1.06 0l-7-7a.75.75 0 1 1 1.061-1.061l6.47 6.47 6.47-6.47a.748.748 0 0 1 1.06 0Zm-8.06 1.06a.748.748 0 0 0 1.06 0l7-7a.75.75 0 1 0-1.06-1.06L12 10.94 5.53 4.47a.75.75 0 0 0-1.062 1.06l7.002 7Z"/></svg>
